raw-svg/spinner-dotted.svg

<svg fill="none" height="24" viewBox="0 0 24 24" width="24" xmlns="http://www.w3.org/2000/svg"><path clip-rule="evenodd" d="m12 5.5c.8284 0 1.5-.67157 1.5-1.5s-.6716-1.5-1.5-1.5-1.5.67157-1.5 1.5.6716 1.5 1.5 1.5zm-6.5 6.5c0 .8284-.67157 1.5-1.5 1.5s-1.5-.6716-1.5-1.5.67157-1.5 1.5-1.5 1.5.6716 1.5 1.5zm16 0c0 .8284-.6716 1.5-1.5 1.5s-1.5-.6716-1.5-1.5.6716-1.5 1.5-1.5 1.5.6716 1.5 1.5zm-8 8c0 .8284-.6716 1.5-1.5 1.5s-1.5-.6716-1.5-1.5.6716-1.5 1.5-1.5 1.5.6716 1.5 1.5zm-8.21732-12.59597c.58578.58578 1.53553.58578 2.12132 0 .58578-.58579.58578-1.53554 0-2.12132-.58579-.58579-1.53554-.58579-2.12132 0-.58579.58578-.58579 1.53553 0 2.12132zm13.43462 11.31327c-.5858.5857-1.5355.5857-2.1213 0-.5858-.5858-.5858-1.5356 0-2.1214.5858-.5857 1.5355-.5857 2.1213 0 .5858.5858.5858 1.5356 0 2.1214zm-13.43462 0c.58578.5857 1.53553.5857 2.12132 0 .58578-.5858.58578-1.5356 0-2.1214-.58579-.5857-1.53554-.5857-2.12132 0-.58579.5858-.58579 1.5356 0 2.1214z" fill="#000" fill-rule="evenodd"/></svg>

<svg width="24" height="24" viewBox="0 0 24 24" fill="none" xmlns="http://www.w3.org/2000/svg">
<path fill-rule="evenodd" clip-rule="evenodd" d="M12 5.5C12.8284 5.5 13.5 4.82843 13.5 4C13.5 3.17157 12.8284 2.5 12 2.5C11.1716 2.5 10.5 3.17157 10.5 4C10.5 4.82843 11.1716 5.5 12 5.5ZM5.5 12C5.5 12.8284 4.82843 13.5 4 13.5C3.17157 13.5 2.5 12.8284 2.5 12C2.5 11.1716 3.17157 10.5 4 10.5C4.82843 10.5 5.5 11.1716 5.5 12ZM21.5 12C21.5 12.8284 20.8284 13.5 20 13.5C19.1716 13.5 18.5 12.8284 18.5 12C18.5 11.1716 19.1716 10.5 20 10.5C20.8284 10.5 21.5 11.1716 21.5 12ZM13.5 20C13.5 20.8284 12.8284 21.5 12 21.5C11.1716 21.5 10.5 20.8284 10.5 20C10.5 19.1716 11.1716 18.5 12 18.5C12.8284 18.5 13.5 19.1716 13.5 20ZM5.28268 7.40403C5.86846 7.98981 6.81821 7.98981 7.404 7.40403C7.98978 6.81824 7.98978 5.86849 7.404 5.28271C6.81821 4.69692 5.86846 4.69692 5.28268 5.28271C4.69689 5.86849 4.69689 6.81824 5.28268 7.40403ZM18.7173 18.7173C18.1315 19.303 17.1818 19.303 16.596 18.7173C16.0102 18.1315 16.0102 17.1817 16.596 16.5959C17.1818 16.0102 18.1315 16.0102 18.7173 16.5959C19.3031 17.1817 19.3031 18.1315 18.7173 18.7173ZM5.28268 18.7173C5.86846 19.303 6.81821 19.303 7.404 18.7173C7.98978 18.1315 7.98978 17.1817 7.404 16.5959C6.81821 16.0102 5.86846 16.0102 5.28268 16.5959C4.69689 17.1817 4.69689 18.1315 5.28268 18.7173Z" fill="black"/>
</svg>
